outputs/icons/date_time/clock_switch_round.svg

<svg xmlns="http://www.w3.org/2000/svg" width="1200" height="1200" fill="none"><path fill="#000" d="M584.97 351.045h-3c-20 0-36 16-36 36v236c0 17.5 9 34 24.5 43l150.435 90.26a301.6 301.6 0 0 1 54.64-50.395L620.97 614.045v-227c0-20-16-36-36-36M874.5 730.265V787.5h238c20.71 0 37.5 16.79 37.5 37.5s-16.79 37.5-37.5 37.5h-238v57.235c0 11.15-13.49 16.72-21.355 8.825l-94.36-94.74c-4.855-4.875-4.855-12.765 0-17.64l94.36-94.74c7.865-7.895 21.355-2.325 21.355 8.825M787.5 1000h238v-57.235c0-11.15 13.49-16.72 21.355-8.825l94.36 94.74c4.855 4.875 4.855 12.765 0 17.64l-94.36 94.74c-7.865 7.895-21.355 2.325-21.355-8.825V1075h-238c-20.71 0-37.5-16.79-37.5-37.5s16.79-37.5 37.5-37.5"/><path fill="#000" d="M100 600c0-276 223.5-500 499.5-500C876 100 1100 324 1100 600c0 8.905-.235 17.76-.695 26.55-1.54 29.38-33.25 45.15-61.375 36.54-22.385-6.85-38.76-28.085-38.095-51.485q.165-5.784.165-11.605c0-221-179-400-400-400S200 379 200 600s179 400 400 400q5.826 0 11.615-.165c23.395-.665 44.625 15.705 51.475 38.08 8.6 28.115-7.155 59.8-36.515 61.365q-13.447.72-27.075.72c-276 0-499.5-224-499.5-500"/></svg>

<svg width="1200" height="1200" viewBox="0 0 1200 1200" fill="none" xmlns="http://www.w3.org/2000/svg"><path d="M584.97 351.045H581.97C561.97 351.045 545.97 367.045 545.97 387.045V623.045C545.97 640.545 554.97 657.045 570.47 666.045L720.905 756.305C736.95 737.34 755.31 720.4 775.545 705.91L620.97 614.045V387.045C620.97 367.045 604.97 351.045 584.97 351.045Z" fill="black"/><path d="M874.5 730.265V787.5H1112.5C1133.21 787.5 1150 804.29 1150 825C1150 845.71 1133.21 862.5 1112.5 862.5H874.5V919.735C874.5 930.885 861.01 936.455 853.145 928.56L758.785 833.82C753.93 828.945 753.93 821.055 758.785 816.18L853.145 721.44C861.01 713.545 874.5 719.115 874.5 730.265Z" fill="black"/><path d="M787.5 1000H1025.5V942.765C1025.5 931.615 1038.99 926.045 1046.855 933.94L1141.215 1028.68C1146.07 1033.555 1146.07 1041.445 1141.215 1046.32L1046.855 1141.06C1038.99 1148.955 1025.5 1143.385 1025.5 1132.235V1075H787.5C766.79 1075 750 1058.21 750 1037.5C750 1016.79 766.79 1000 787.5 1000Z" fill="black"/><path d="M100 600C100 324 323.5 100 599.5 100C876 100 1100 324 1100 600C1100 608.905 1099.765 617.76 1099.305 626.55C1097.765 655.93 1066.055 671.7 1037.93 663.09C1015.545 656.24 999.17 635.005 999.835 611.605C999.945 607.75 1000 603.88 1000 600C1000 379 821 200 600 200C379 200 200 379 200 600C200 821 379 1000 600 1000C603.885 1000 607.755 999.945 611.615 999.835C635.01 999.17 656.24 1015.54 663.09 1037.915C671.69 1066.03 655.935 1097.715 626.575 1099.28C617.61 1099.76 608.585 1100 599.5 1100C323.5 1100 100 876 100 600Z" fill="black"/></svg>
